icons/svg/shields/h_entrance_exit_shield.svg

<?xml version="1.0" encoding="UTF-8" standalone="no"?>
<!-- Created with Inkscape (http://www.inkscape.org/) -->

<svg
   xmlns:dc="http://purl.org/dc/elements/1.1/"
   xmlns:cc="http://creativecommons.org/ns#"
   xmlns:rdf="http://www.w3.org/1999/02/22-rdf-syntax-ns#"
   xmlns:svg="http://www.w3.org/2000/svg"
   xmlns="http://www.w3.org/2000/svg"
   xmlns:sodipodi="http://sodipodi.sourceforge.net/DTD/sodipodi-0.dtd"
   xmlns:inkscape="http://www.inkscape.org/namespaces/inkscape"
   version="1.0"
   width="16"
   height="16"
   id="svg2"
   sodipodi:version="0.32"
   inkscape:version="0.91 r13725"
   sodipodi:docname="h_entrance_exit_shield.svg"
   inkscape:output_extension="org.inkscape.output.svg.inkscape">
  <metadata
     id="metadata10">
    <rdf:RDF>
      <cc:Work
         rdf:about="">
        <dc:format>image/svg+xml</dc:format>
        <dc:type
           rdf:resource="http://purl.org/dc/dcmitype/StillImage" />
        <cc:license
           rdf:resource="http://web.resource.org/cc/PublicDomain" />
        <dc:language>en</dc:language>
        <dc:title />
      </cc:Work>
    </rdf:RDF>
  </metadata>
  <sodipodi:namedview
     inkscape:window-height="1006"
     inkscape:window-width="1920"
     inkscape:pageshadow="2"
     inkscape:pageopacity="0.0"
     guidetolerance="10.0"
     gridtolerance="10.0"
     objecttolerance="10.0"
     borderopacity="1.0"
     bordercolor="#666666"
     pagecolor="#ffffff"
     id="base"
     showgrid="false"
     inkscape:zoom="22.627417"
     inkscape:cx="7.7140071"
     inkscape:cy="8.4392999"
     inkscape:window-x="1920"
     inkscape:window-y="0"
     inkscape:current-layer="svg2"
     inkscape:window-maximized="1" />
  <defs
     id="defs4">
    <inkscape:perspective
       sodipodi:type="inkscape:persp3d"
       inkscape:vp_x="0 : 290 : 1"
       inkscape:vp_y="0 : 1000 : 0"
       inkscape:vp_z="580 : 290 : 1"
       inkscape:persp3d-origin="290 : 193.33333 : 1"
       id="perspective12" />
    <style
       type="text/css"
       id="style6">
   
    .fil0 {fill:#EF7900}
   
  </style>
    <inkscape:perspective
       id="perspective6807"
       inkscape:persp3d-origin="29.116032 : 19.410688 : 1"
       inkscape:vp_z="58.232063 : 29.116032 : 1"
       inkscape:vp_y="0 : 1000 : 0"
       inkscape:vp_x="0 : 29.116032 : 1"
       sodipodi:type="inkscape:persp3d" />
    <inkscape:perspective
       id="perspective6954"
       inkscape:persp3d-origin="290 : 193.33333 : 1"
       inkscape:vp_z="580 : 290 : 1"
       inkscape:vp_y="0 : 1000 : 0"
       inkscape:vp_x="0 : 290 : 1"
       sodipodi:type="inkscape:persp3d" />
    <inkscape:perspective
       id="perspective2541"
       inkscape:persp3d-origin="240 : 160 : 1"
       inkscape:vp_z="480 : 240 : 1"
       inkscape:vp_y="0 : 1000 : 0"
       inkscape:vp_x="0 : 240 : 1"
       sodipodi:type="inkscape:persp3d" />
    <inkscape:perspective
       id="perspective2750"
       inkscape:persp3d-origin="215 : 143.33333 : 1"
       inkscape:vp_z="430 : 215 : 1"
       inkscape:vp_y="0 : 1000 : 0"
       inkscape:vp_x="0 : 215 : 1"
       sodipodi:type="inkscape:persp3d" />
    <inkscape:perspective
       id="perspective3730"
       inkscape:persp3d-origin="88.929146 : 101.19778 : 1"
       inkscape:vp_z="177.85829 : 151.79668 : 1"
       inkscape:vp_y="0 : 1000 : 0"
       inkscape:vp_x="0 : 151.79668 : 1"
       sodipodi:type="inkscape:persp3d" />
  </defs>
  <path
     style="color:#000000;display:inline;overflow:visible;visibility:visible;opacity:0.797;fill:#ebe7e4;fill-opacity:1;fill-rule:nonzero;stroke:none;stroke-width:6.74431086;marker:none;enable-background:accumulate"
     d="m 4.6231725,4.125633 c -0.082104,0.0081 -0.1632252,0.026123 -0.2410312,0.053562 0.017131,-0.00676 -0.1236582,0.061677 -0.107125,0.053562 0.016533,-0.00812 -0.096172,0.062979 -0.080344,0.053563 0.015828,-0.00942 -0.1221454,0.06422 -0.107125,0.053562 0.01502,-0.010658 -0.09446,0.092173 -0.080344,0.080344 0.014116,-0.01183 -0.093464,0.066488 -0.080344,0.053562 0.01312,-0.012925 -0.092383,0.094281 -0.080344,0.080344 0.012039,-0.013937 -0.091225,0.1219844 -0.080344,0.107125 0.010881,-0.01486 -0.063215,0.096029 -0.053562,0.080344 0.00965,-0.015686 -0.061924,0.1235349 -0.053563,0.107125 0.00836,-0.01641 -0.060579,0.097372 -0.053562,0.080344 0.00702,-0.017029 -0.032407,0.1246621 -0.026781,0.107125 0.00562,-0.017537 -0.030981,0.1250573 -0.026781,0.107125 0.0042,-0.017932 -0.029526,0.1253366 -0.026781,0.107125 0.00274,-0.018211 -0.00128,0.1254983 0,0.107125 0.00128,-0.018373 2.063e-4,0.1255413 0,0.107125 -4.12e-5,-0.00369 -4.43e-4,0.0199 0,0.026781 0.00177,0.027522 0.00135,0.1217971 0,0.107125 l 0,4.7938442 c 0.00236,-0.01237 -0.00167,0.09282 0,0.08034 0.00167,-0.01248 -9.856e-4,0.06611 0,0.05356 l 0,0.05356 c -0.00676,0.07448 0,0.150563 0,0.187469 -0.00109,-0.01255 0.00178,0.09281 0,0.08034 -0.00178,-0.01246 0.00246,0.06591 0,0.05356 -0.00246,-0.01235 0.029916,0.09254 0.026781,0.08034 -0.00314,-0.0122 0.030581,0.09235 0.026781,0.08034 -0.0038,-0.012 0.031235,0.06534 0.026781,0.05356 -0.00446,-0.01178 0.031875,0.09186 0.026781,0.08034 -0.00509,-0.01151 0.0325,0.09156 0.026781,0.08034 -0.00572,-0.01122 0.033108,0.06445 0.026781,0.05356 -0.00632,-0.01088 0.060477,0.06409 0.053562,0.05356 -0.00692,-0.01052 0.034263,0.09047 0.026781,0.08034 -0.00748,-0.01012 0.061589,0.06326 0.053562,0.05356 -0.00803,-0.0097 0.06211,0.06281 0.053562,0.05356 -0.00854,-0.0092 0.062605,0.06232 0.053562,0.05356 -0.00904,-0.0088 0.063073,0.06181 0.053562,0.05356 -0.00951,-0.0082 0.063511,0.06128 0.053563,0.05356 -0.00995,-0.0077 0.06392,0.03394 0.053562,0.02678 -0.010358,-0.0072 0.091079,0.06014 0.080344,0.05356 -0.010735,-0.0066 0.064643,0.03275 0.053562,0.02678 -0.01108,-0.006 0.091736,0.05892 0.080344,0.05356 -0.011392,-0.0054 0.065231,0.0315 0.053562,0.02678 -0.011669,-0.0047 0.092255,0.03086 0.080344,0.02678 -0.011911,-0.0041 0.092461,0.0302 0.080344,0.02678 -0.012117,-0.0034 0.065849,0.0027 0.053562,0 -0.012287,-0.0027 0.092762,0.02885 0.080344,0.02678 -0.012419,-0.0021 0.092857,0.0014 0.080344,0 -0.012513,-0.0014 0.092914,6.91e-4 0.080344,0 -0.012571,-6.92e-4 0.066152,0 0.053562,0 -0.012589,0 0.092914,-6.92e-4 0.080344,0 -0.01257,6.91e-4 0.092857,-0.0014 0.080344,0 -0.012513,0.0014 0.092762,-0.0021 0.080344,0 -0.012419,0.0021 0.09263,-0.02952 0.080344,-0.02678 -0.012286,0.0027 0.06568,-0.0034 0.053562,0 -0.012117,0.0034 0.092255,-0.03086 0.080344,-0.02678 -0.011911,0.0041 0.092013,-0.0315 0.080344,-0.02678 -0.011669,0.0047 0.064955,-0.03214 0.053562,-0.02678 -0.011392,0.0054 0.091424,-0.05954 0.080344,-0.05356 -0.01108,0.006 0.064297,-0.03335 0.053562,-0.02678 -0.010735,0.0066 0.090701,-0.06072 0.080344,-0.05356 -0.010358,0.0072 0.063511,-0.03449 0.053562,-0.02678 -0.00995,0.0077 0.063073,-0.06181 0.053562,-0.05356 -0.00951,0.0082 0.062605,-0.06232 0.053563,-0.05356 -0.00904,0.0088 0.06211,-0.06281 0.053562,-0.05356 -0.00854,0.0092 0.061589,-0.06326 0.053562,-0.05356 l 1.5534279,-0.0095 c 0,0 0.1809049,0.487731 1.0812423,0.485245 0.9003374,-0.0025 1.1187263,-0.717416 1.141486,-1.413119 l 0,-1.098031 0.368242,0 c 0.349067,1.936944 2.212643,1.659397 2.658039,0.562406 l 0.669532,-1.2854997 c 0.0094,-0.017589 0.01837,-0.035453 0.02678,-0.053562 -0.0069,0.015134 0.03247,-0.1227298 0.02678,-0.107125 -0.0057,0.015605 0.05807,-0.123113 0.05356,-0.107125 -0.0045,0.015988 0.03007,-0.096625 0.02678,-0.080344 -0.0033,0.016281 0.0021,-0.1236072 0,-0.107125 -0.0021,0.016482 0.0276,-0.1237153 0.02678,-0.107125 -8.18e-4,0.016591 -4.3e-4,-0.1237298 0,-0.107125 3.29e-4,0.012698 -0.02514,-0.050591 -0.02678,-0.080344 0,0.00812 0.0011,-0.023939 0,-0.053563 -0.0015,-0.010216 0.0021,-0.011776 0,-0.026781 -5.79e-4,-0.0082 8.47e-4,-0.012391 0,-0.026781 -0.0014,-0.010238 -7.28e-4,-0.03087 0,-0.026781 -0.0015,-0.028788 -8.57e-4,-0.061845 0,-0.053562 0.0021,0.020708 -0.03086,-0.1543207 -0.02678,-0.1339062 0.0041,0.020415 -0.03276,-0.1538464 -0.02678,-0.1339063 0.006,0.01994 -0.03461,-0.126414 -0.02678,-0.107125 -0.01575,-0.036709 -0.03365,-0.072498 -0.05356,-0.107125 l -0.64275,-1.2319375 c 0.0039,0.00865 -0.01253,-0.024599 -0.02678,-0.053562 -0.0089,-0.018102 -0.02959,-0.032002 -0.02678,-0.026781 0.0073,0.013575 -0.03503,-0.093376 -0.02678,-0.080344 0.0082,0.013032 -0.08948,-0.092769 -0.08034,-0.080344 0.0091,0.012426 -0.06354,-0.092102 -0.05356,-0.080344 0.01,0.011758 -0.06433,-0.091378 -0.05356,-0.080344 0.01077,0.011034 -0.09186,-0.063818 -0.08034,-0.053562 0.01152,0.010256 -0.09255,-0.089772 -0.08034,-0.080344 0.0122,0.00943 -0.09318,-0.062117 -0.08034,-0.053562 0.01283,0.00855 -0.09374,-0.061202 -0.08034,-0.053562 0.01339,0.00764 -0.09424,-0.033468 -0.08034,-0.026781 0.0139,0.00668 -0.09467,-0.059265 -0.08034,-0.053562 0.01433,0.0057 -0.121818,-0.031471 -0.107125,-0.026781 0.01469,0.00469 -0.09533,-0.030435 -0.08034,-0.026781 0.01498,0.00365 -0.122327,-0.029382 -0.107125,-0.026781 0.0152,0.0026 -0.09569,-0.00153 -0.08034,0 0.01535,0.00153 -0.122541,-4.614e-4 -0.107125,0 0.01623,5.963e-4 -0.09657,5.963e-4 -0.08034,0 -0.06231,-0.00571 -0.125153,-0.00571 -0.187468,0 0.01259,-0.00262 -0.09276,0.030133 -0.08034,0.026781 0.01242,-0.00335 -0.09255,0.030849 -0.08034,0.026781 0.0122,-0.00407 -0.09229,0.031552 -0.08034,0.026781 0.01195,-0.00477 -0.06521,0.032239 -0.05356,0.026781 0.01165,-0.00482 -0.0917,0.032253 -0.08034,0.026781 0.01136,-0.00548 -0.06459,0.059673 -0.05356,0.053562 0.01103,-0.00611 -0.091,0.03351 -0.08034,0.026781 0.01066,-0.00673 -0.06382,0.060888 -0.05356,0.053562 0.01026,-0.00733 -0.09017,0.061461 -0.08034,0.053562 0.0098,-0.0079 -0.06292,0.035226 -0.05356,0.026781 0.0094,-0.00844 -0.06242,0.089309 -0.05356,0.080344 0.0089,-0.00897 -0.0619,0.063018 -0.05356,0.053562 0.0083,-0.00946 -0.06134,0.063478 -0.05356,0.053562 0.0078,-0.00992 -0.06077,0.063905 -0.05356,0.053562 0.0072,-0.010342 -0.06017,0.09108 -0.05356,0.080344 0.0066,-0.010736 -0.03276,0.064658 -0.02678,0.053562 0.006,-0.011096 -0.03212,0.091762 -0.02678,0.080344 0.0053,-0.011419 -0.05824,0.092048 -0.05356,0.080344 0.0047,-0.011704 -0.03079,0.092296 -0.02678,0.080344 0.004,-0.011953 -0.0033,0.065723 0,0.053562 0.0033,-0.012161 -0.0294,0.092674 -0.02678,0.080344 0.0027,-0.012331 -0.02869,0.092804 -0.02678,0.080344 0.0019,-0.01246 -0.0012,0.092893 0,0.080344 8e-4,-0.00836 0.0018,0.027301 0,0.053562 l -0.401719,0 0,-1.0980313 0,-0.026781 c -0.00155,-0.034575 -0.00146,-0.1255587 0,-0.107125 0.00183,0.023042 -0.00414,-0.1566473 0,-0.1339063 0.00414,0.022741 -0.059969,-0.1561149 -0.053562,-0.1339062 0.00641,0.022209 -0.035392,-0.1553566 -0.026781,-0.1339063 0.00861,0.02145 -0.064291,-0.1543799 -0.053562,-0.1339062 C 9.5884319,4.8692004 9.484624,4.722313 9.49736,4.7416018 9.5100961,4.7608905 9.4024019,4.589788 9.4170163,4.6076955 9.4316307,4.625603 9.2935472,4.5110077 9.3098913,4.5273518 9.3262354,4.5436959 9.21164,4.4056123 9.2295475,4.4202268 9.2474551,4.4348412 9.0763525,4.327147 9.0956413,4.339883 9.11493,4.3526191 8.9680426,4.2488112 8.9885163,4.2595393 9.0089899,4.2702674 8.8331597,4.1973658 8.85461,4.2059768 c 0.02145,0.00861 -0.1561149,-0.033187 -0.1339062,-0.026781 0.022208,0.00641 -0.1566473,-0.057698 -0.1339063,-0.053562 0.022741,0.00414 -0.1569482,-0.00183 -0.1339062,0 0.018434,0.00146 -0.07255,0.00155 -0.107125,0 l -0.026781,0 -3.320875,0 -0.080344,0 c 0.00675,3.995e-4 -0.029979,6.968e-4 -0.053562,0 -0.011792,-3.484e-4 -0.018784,2.863e-4 -0.026781,0 0.014393,5.661e-4 -0.080164,3.396e-4 -0.107125,0 0.0045,-2.663e-4 -0.013357,-0.00123 -0.026781,0 -0.017851,-4.652e-4 -0.035712,-4.652e-4 -0.053563,0 -0.00893,-1.163e-4 -0.017855,-1.163e-4 -0.026781,0 z"
     id="path5118"
     inkscape:connector-curvature="0"
     sodipodi:nodetypes="cccsssscsscccscsccccsccccsccccccccccscscccccccscssssssssccccccscsccczcccccccccscscccccscccccccccssscscccccccccccccccsccccsccccccccscccccccccsssssssssscccccccsccccc" />
</svg>

<svg width="16" height="16" viewBox="0 0 16 16" fill="none" xmlns="http://www.w3.org/2000/svg">
<path opacity="0.797" d="M4.62316 4.12561C4.54106 4.13371 4.45994 4.15173 4.38213 4.17917C4.39926 4.17241 4.25847 4.24085 4.275 4.23273C4.29154 4.22461 4.17883 4.29571 4.19466 4.2863C4.21049 4.27688 4.07252 4.35052 4.08754 4.33986C4.10256 4.3292 3.99308 4.43203 4.00719 4.4202C4.02131 4.40837 3.91373 4.48669 3.92685 4.47376C3.93997 4.46084 3.83446 4.56805 3.8465 4.55411C3.85854 4.54017 3.75528 4.67609 3.76616 4.66123C3.77704 4.64637 3.70294 4.75726 3.7126 4.74158C3.72225 4.72589 3.65067 4.86511 3.65903 4.8487C3.66739 4.83229 3.59846 4.94608 3.60547 4.92905C3.61249 4.91202 3.57307 5.05371 3.57869 5.03617C3.58431 5.01863 3.54771 5.16123 3.55191 5.1433C3.55611 5.12537 3.52238 5.26863 3.52513 5.25042C3.52787 5.23221 3.52385 5.37592 3.52513 5.35755C3.52641 5.33917 3.52534 5.48309 3.52513 5.46467C3.52509 5.46098 3.52469 5.48457 3.52513 5.49145C3.5269 5.51898 3.52648 5.61325 3.52513 5.59858V10.3924C3.52749 10.3801 3.52346 10.4852 3.52513 10.4728C3.5268 10.4603 3.52414 10.5389 3.52513 10.5263V10.5799C3.51837 10.6544 3.52513 10.7304 3.52513 10.7674C3.52404 10.7548 3.52691 10.8602 3.52513 10.8477C3.52335 10.8352 3.52759 10.9136 3.52513 10.9013C3.52267 10.8889 3.55505 10.9938 3.55191 10.9816C3.54877 10.9694 3.58249 11.0739 3.57869 11.0619C3.57489 11.0499 3.60993 11.1273 3.60547 11.1155C3.60101 11.1037 3.63735 11.2074 3.63225 11.1958C3.62716 11.1843 3.66475 11.2874 3.65903 11.2762C3.65331 11.265 3.69214 11.3406 3.68582 11.3297C3.6795 11.3189 3.74629 11.3938 3.73938 11.3833C3.73246 11.3728 3.77364 11.4738 3.76616 11.4636C3.75868 11.4535 3.82775 11.5269 3.81972 11.5172C3.81169 11.5075 3.88183 11.58 3.87328 11.5708C3.86474 11.5616 3.93589 11.6331 3.92684 11.6243C3.9178 11.6155 3.98992 11.6861 3.98041 11.6779C3.9709 11.6697 4.04392 11.7392 4.03397 11.7314C4.02402 11.7237 4.09789 11.7654 4.08753 11.7582C4.07717 11.751 4.17861 11.8184 4.16788 11.8118C4.15714 11.8052 4.23252 11.8445 4.22144 11.8386C4.21036 11.8326 4.31317 11.8975 4.30178 11.8921C4.29039 11.8867 4.36701 11.9236 4.35534 11.9189C4.34367 11.9142 4.4476 11.9498 4.43569 11.9457C4.42378 11.9416 4.52815 11.9759 4.51603 11.9725C4.50391 11.9691 4.58188 11.9752 4.56959 11.9725C4.55731 11.9698 4.66236 12.0013 4.64994 11.9992C4.63752 11.9971 4.74279 12.0006 4.73028 11.9992C4.71777 11.9978 4.8232 11.9999 4.81063 11.9992C4.79805 11.9985 4.87678 11.9992 4.86419 11.9992C4.8516 11.9992 4.9571 11.9985 4.94453 11.9992C4.93196 11.9999 5.03739 11.9978 5.02488 11.9992C5.01236 12.0006 5.11764 11.9971 5.10522 11.9992C5.0928 12.0013 5.19785 11.9697 5.18556 11.9725C5.17328 11.9752 5.25124 11.9691 5.23913 11.9725C5.22701 11.9759 5.33138 11.9416 5.31947 11.9457C5.30756 11.9498 5.41148 11.9142 5.39981 11.9189C5.38814 11.9236 5.46477 11.8868 5.45338 11.8921C5.44198 11.8975 5.5448 11.8326 5.53372 11.8386C5.52264 11.8446 5.59802 11.8052 5.58728 11.8118C5.57655 11.8184 5.67798 11.7511 5.66763 11.7582C5.65727 11.7654 5.73114 11.7237 5.72119 11.7314C5.71124 11.7391 5.78426 11.6696 5.77475 11.6779C5.76524 11.6861 5.83735 11.6156 5.82831 11.6243C5.81927 11.6331 5.89042 11.5615 5.88188 11.5708C5.87334 11.58 5.94346 11.5075 5.93544 11.5172L7.48886 11.5077C7.48886 11.5077 7.66977 11.9954 8.57011 11.9929C9.47044 11.9904 9.68883 11.2755 9.71159 10.5798V9.48179H10.0798C10.4289 11.4187 12.2925 11.1412 12.7379 10.0442L13.4074 8.75869C13.4168 8.7411 13.4258 8.72324 13.4342 8.70513C13.4273 8.72026 13.4667 8.5824 13.461 8.59801C13.4553 8.61361 13.519 8.47489 13.5145 8.49088C13.51 8.50687 13.5446 8.39426 13.5413 8.41054C13.538 8.42682 13.5434 8.28693 13.5413 8.30341C13.5392 8.31989 13.5689 8.1797 13.5681 8.19629C13.5673 8.21288 13.5677 8.07256 13.5681 8.08916C13.5684 8.10186 13.5429 8.03857 13.5413 8.00882C13.5413 8.01694 13.5424 7.98488 13.5413 7.95525C13.5398 7.94504 13.5434 7.94348 13.5413 7.92847C13.5407 7.92027 13.5422 7.91608 13.5413 7.90169C13.5399 7.89145 13.5406 7.87082 13.5413 7.87491C13.5398 7.84612 13.5404 7.81307 13.5413 7.82135C13.5434 7.84206 13.5104 7.66703 13.5145 7.68744C13.5186 7.70786 13.4818 7.5336 13.4877 7.55354C13.4937 7.57348 13.4531 7.42712 13.461 7.44641C13.4452 7.4097 13.4273 7.37391 13.4074 7.33929L12.7647 6.10735C12.7686 6.116 12.7521 6.08275 12.7379 6.05379C12.729 6.03569 12.7083 6.02179 12.7111 6.02701C12.7184 6.04058 12.6761 5.93363 12.6843 5.94666C12.6925 5.95969 12.5948 5.85389 12.604 5.86632C12.6131 5.87874 12.5404 5.77422 12.5504 5.78597C12.5604 5.79773 12.4861 5.6946 12.4969 5.70563C12.5076 5.71666 12.405 5.64181 12.4165 5.65207C12.428 5.66232 12.324 5.5623 12.3362 5.57172C12.3484 5.58115 12.243 5.50961 12.2558 5.51816C12.2687 5.52671 12.1621 5.45696 12.1755 5.4646C12.1889 5.47224 12.0813 5.43113 12.0952 5.43782C12.1091 5.4445 12.0005 5.37855 12.0148 5.38426C12.0291 5.38996 11.893 5.35279 11.9077 5.35748C11.9224 5.36217 11.8124 5.32704 11.8274 5.3307C11.8423 5.33435 11.705 5.30131 11.7202 5.30391C11.7354 5.30651 11.6245 5.30238 11.6399 5.30391C11.6552 5.30544 11.5173 5.30345 11.5328 5.30391C11.549 5.30451 11.4362 5.30451 11.4524 5.30391C11.3901 5.2982 11.3273 5.2982 11.265 5.30391C11.2775 5.30129 11.1722 5.33405 11.1846 5.3307C11.197 5.32735 11.0921 5.36154 11.1043 5.35748C11.1165 5.35341 11.012 5.38903 11.0239 5.38426C11.0359 5.37949 10.9587 5.4165 10.9704 5.41104C10.982 5.40622 10.8787 5.44329 10.89 5.43782C10.9014 5.43234 10.8254 5.49749 10.8365 5.49138C10.8475 5.48527 10.7455 5.52489 10.7561 5.51816C10.7668 5.51143 10.6923 5.57905 10.7026 5.57172C10.7128 5.56439 10.6124 5.63319 10.6222 5.62529C10.632 5.61739 10.5593 5.66051 10.5687 5.65207C10.5781 5.64363 10.5063 5.74138 10.5151 5.73241C10.524 5.72344 10.4532 5.79543 10.4616 5.78597C10.4699 5.77651 10.4002 5.84945 10.408 5.83954C10.4158 5.82962 10.3472 5.90344 10.3544 5.8931C10.3616 5.88276 10.2943 5.98418 10.3009 5.97344C10.3075 5.96271 10.2681 6.0381 10.2741 6.027C10.2801 6.01591 10.242 6.11877 10.2473 6.10735C10.2526 6.09593 10.1891 6.1994 10.1938 6.18769C10.1985 6.17599 10.163 6.27999 10.167 6.26804C10.171 6.25608 10.1637 6.33376 10.167 6.3216C10.1703 6.30944 10.1376 6.41427 10.1402 6.40194C10.1429 6.38961 10.1115 6.49475 10.1134 6.48229C10.1153 6.46983 10.1122 6.57518 10.1134 6.56263C10.1142 6.55427 10.1152 6.58993 10.1134 6.61619H9.71169V5.51816V5.49138C9.71014 5.4568 9.71023 5.36582 9.71169 5.38425C9.71352 5.4073 9.70755 5.22761 9.71169 5.25035C9.71583 5.27309 9.65172 5.09423 9.65813 5.11644C9.66454 5.13865 9.62274 4.96109 9.63135 4.98254C9.63996 5.00399 9.56706 4.82816 9.57779 4.84863C9.58842 4.86918 9.48461 4.72229 9.49735 4.74158C9.51008 4.76087 9.40239 4.58977 9.417 4.60767C9.43162 4.62558 9.29354 4.51098 9.30988 4.52733C9.32622 4.54367 9.21163 4.40559 9.22954 4.4202C9.24744 4.43482 9.07634 4.32712 9.09563 4.33986C9.11492 4.3526 8.96803 4.24879 8.9885 4.25952C9.00898 4.27024 8.83315 4.19734 8.8546 4.20595C8.87605 4.21456 8.69848 4.17277 8.72069 4.17917C8.7429 4.18558 8.56405 4.12147 8.58679 4.12561C8.60953 4.12975 8.42984 4.12378 8.45288 4.12561C8.47131 4.12707 8.38033 4.12716 8.34575 4.12561H8.31897H4.9981H4.91775C4.9245 4.12601 4.88778 4.12631 4.86419 4.12561C4.8524 4.12526 4.84541 4.1259 4.83741 4.12561C4.8518 4.12618 4.75725 4.12595 4.73029 4.12561C4.73479 4.12534 4.71693 4.12438 4.70351 4.12561C4.68565 4.12515 4.66779 4.12515 4.64994 4.12561C4.64101 4.12549 4.63209 4.12549 4.62316 4.12561L4.62316 4.12561Z" fill="#EBE7E4"/>
</svg>
